newicons/emoji_hourglass.svg

<?xml version="1.0" encoding="UTF-8" standalone="no"?>
<svg
   id="b"
   viewBox="0 0 48 48"
   version="1.1"
   sodipodi:docname="emoji_hourglass.svg"
   inkscape:version="1.4.3 (0d15f75042, 2025-12-25)"
   xmlns:inkscape="http://www.inkscape.org/namespaces/inkscape"
   xmlns:sodipodi="http://sodipodi.sourceforge.net/DTD/sodipodi-0.dtd"
   xmlns="http://www.w3.org/2000/svg"
   xmlns:svg="http://www.w3.org/2000/svg">
  <sodipodi:namedview
     id="namedview2"
     pagecolor="#ffffff"
     bordercolor="#666666"
     borderopacity="1.0"
     inkscape:showpageshadow="2"
     inkscape:pageopacity="0.0"
     inkscape:pagecheckerboard="0"
     inkscape:deskcolor="#d1d1d1"
     showguides="false"
     inkscape:zoom="2.8284271"
     inkscape:cx="58.159533"
     inkscape:cy="28.991378"
     inkscape:window-width="1920"
     inkscape:window-height="1050"
     inkscape:window-x="0"
     inkscape:window-y="0"
     inkscape:window-maximized="1"
     inkscape:current-layer="b" />
  <defs
     id="defs1">
    <inkscape:path-effect
       center_point="24,24"
       end_point="24,43.5"
       start_point="24,4.5"
       effect="mirror_symmetry"
       id="path-effect1"
       is_visible="true"
       lpeversion="1.2"
       lpesatellites=""
       mode="free"
       discard_orig_path="false"
       fuse_paths="false"
       oposite_fuse="false"
       split_items="false"
       split_open="false"
       link_styles="false" />
    <style
       id="style1">.c{fill:none;stroke:#fff;stroke-linecap:round;stroke-linejoin:round;}</style>
  </defs>
  <path
     id="path1"
     style="stroke:#ffffff;stroke-opacity:1"
     class="c"
     d="M 24,4.5 H 14.623047 C 9.9145469,4.5 7.1624,9.8059 9.873,13.656 c 0,0 4.896552,7.689 7.281297,10.344 C 19.539042,26.655 23.592131,33.69349 20.5,36.200926 17.407869,38.708362 17.748289,32.028848 9.873,34.344 M 24,43.5 H 14.623047 C 9.914547,43.5 7.1624,38.1941 9.873,34.344 l 6.066257,-8.617882 M 24,4.5 h 9.376953 c 4.7085,0 7.460647,5.3059 4.750047,9.156 0,0 -4.896552,7.689 -7.281297,10.344 C 28.460958,26.655 24.407869,33.69349 27.5,36.200926 30.592131,38.708362 30.251711,32.028848 38.127,34.344 M 24,43.5 h 9.376953 c 4.7085,0 7.460647,-5.3059 4.750047,-9.156 l -6.066257,-8.617882"
     sodipodi:nodetypes="ccczzccccc"
     inkscape:path-effect="#path-effect1"
     inkscape:original-d="M 24,4.5 H 14.623047 C 9.9145469,4.5 7.1624,9.8059 9.873,13.656 c 0,0 4.896552,7.689 7.281297,10.344 C 19.539042,26.655 23.592131,33.69349 20.5,36.200926 17.407869,38.708362 17.748289,32.028848 9.873,34.344 M 24,43.5 H 14.623047 C 9.914547,43.5 7.1624,38.1941 9.873,34.344 l 6.066257,-8.617882" />
  <path
     d="m 38.127,13.656 c -14.086861,-7.2339013 -9.954433,13.226624 -28.254,0"
     style="fill:none;stroke:#ffffff;stroke-linecap:round;stroke-linejoin:round;stroke-opacity:1"
     id="path1-6"
     sodipodi:nodetypes="cc" />
</svg>

<?xml version="1.0" encoding="UTF-8"?><svg id="b" xmlns="http://www.w3.org/2000/svg" viewBox="0 0 48 48"><defs><style>.g{fill:none;stroke:#fff;stroke-linecap:round;stroke-linejoin:round;}</style></defs><path id="e" class="g" d="M24,4.5h-9.377c-4.7085,0-7.4606,5.3059-4.75,9.156,0,0,4.8966,7.689,7.2813,10.344,2.3847,2.655,6.4378,9.6935,3.3457,12.2009-3.0921,2.5074-2.7517-4.1721-10.627-1.8569M24,43.5h-9.377c-4.7085,0-7.4606-5.3059-4.75-9.156l6.0663-8.6179M24,4.5h9.377c4.7085,0,7.4606,5.3059,4.75,9.156,0,0-4.8966,7.689-7.2813,10.344-2.3847,2.655-6.4378,9.6935-3.3457,12.2009,3.0921,2.5074,2.7517-4.1721,10.627-1.8569M24,43.5h9.377c4.7085,0,7.4606-5.3059,4.75-9.156l-6.0663-8.6179"/><path id="f" class="g" d="M38.127,13.656c-14.0869-7.2339-9.9544,13.2266-28.254,0"/></svg>
